src/assets/logo.svg

<svg xmlns="http://www.w3.org/2000/svg" width="45" height="45" viewBox="0 0 45 45" fill="none">
<rect width="45" height="45" fill="#1E1E1E"/>
<g id="Main page">
<rect width="1440" height="1937" transform="translate(-72 -1139)" fill="#F1F8FF"/>
<g id="Group 1597883471">
<circle id="Ellipse 10403" cx="22" cy="24" r="20" fill="#1761F5"/>
<path id="A" d="M17.4277 0H27.5072L45 45H35.3107L31.409 34.2528H13.591L9.68931 45H0L17.4277 0ZM28.5477 26.4595L24.4509 15.1466L22.7601 9.74162H22.2399L20.5491 15.1466L16.3873 26.4595H28.5477Z" fill="#F1F8FF"/>
</g>
</g>
</svg>

<svg xmlns="http://www.w3.org/2000/svg" width="45" height="45" fill="none">
    <path fill="#F1F8FF" d="M-72-1139h1440V798H-72z"/>
    <circle cx="22" cy="24" r="20" fill="#1761F5"/>
    <path d="M17.428 0h10.08L45 45h-9.69L31.41 34.253H13.591L9.689 45H0L17.428 0Zm11.12 26.46L24.45 15.146l-1.69-5.405h-.521l-1.69 5.405-4.163 11.312h12.16Z" fill="#F1F8FF"/>
</svg>
